X: 28247
T: Mrs. Hogan's Birthday
R: reel
M: 4/4
K: Fmajor
|:z e|fedf ed c2|dcBd cA F2|~F2 ED CFAc|AG F2 G2 c2|
fedf ed c2|dcBd cA F2|~F2 EG FGAd|cAGE F2:|
|:FE|D2 FD EFGB|A^cde defg|afdf e^c (3ABc|dAFA EAEA|
DEFD EFGB|AaAA afdB|d2 A2-AAB^c|dfe^c d2:|

